!!!OTL: 419b. Das Muehlrad.
!!!ODT: 1782
!!!ARE: Europa, Mitteleuropa, Deutschland
!!!SCT: E0419
!!!TXL: @@DE
!!!YEM: Copyright 1995, estate of Helmut Schaffrath.
**kern	**text
*ICvox	*
*M6/8	*
*k[f#]	*
*G:	*
!LO:TX:a:t=Mäßig.	!
!LO:TX:a:t=Mel. 1782.	!
{8d	Da
=1	=1
8.g	drun-
16f#	-ten
8g	in
8aL	je-
8gJ	.
8a	-nem
=2	=2
(4b/	Tha-
8a)	.
4g}	-le
{16gL	da
16aJ	.
=3	=3
8.b	trei-
16cc	-bet
8dd	das
8ddL	Waſſer
8ccJ	.
8b	ein
=4	=4
4.a	Rad,
4r}	.
{8cc	das
=5	=5
8b	mah-
8cc	-let
8dd	nichts
8dd	an-
8cc	-ders
8b	als
=6	=6
8.ccL	Lie-
16dd	.
8eeJ	.
4dd}	-be
{8cc	vom
=7	=7
8b/	A-
8a	-bend
8g	bis
8aL	an
8gJ	.
8a	den
=8	=8
4.g	Tag.
4r}	.
==	==
!!!AGN: Liebes - Lied, Abschied
!!!ONB: ESAC (Essen Associative Code) Database: ERK1
!!!AMT: compound duple
!!!AIN: vox
!!!EED: Helmut Schaffrath
!!!EEV: 1.0
!!!GTL: Liebeslieder [Alte (aus dem 13. bis 17. Jahrh.) mit ihrem jungen Nachwuchs]
!!!URL-scan: https://rosdok.uni-rostock.de/mcrviewer/recordIdentifier/rosdok_ppn745177662/iview2/phys_0238.iview2?x=-778.7160746633431&y=1077.4370305910707&scale=0.3980252647138593&rotation=0&layout=singlePageLayout
!!!ENC: Anna Maria Matuszewska
!!!EEV: 2024/09/12
*-	*-
